!!!!SEGMENT: pl-kc--40102-iii-1-saf--002-041_zielenski-mikolaj--communiones-totius-anni-in-ascensione-domini-psallite-domino.krn
!!!cenid: 16xx:1572
!!!COM: Zieleński, Mikołaj
!!!COM-rismid: pe30013481
!!!CDT:
!!!CNT: Polish
!!!OTL: Communiones totius anni
!!!OMV: 041
!!!PDT: 1611
!!!AGN:
!!!SMS-siglum: PL-Kc
!!!SMS-shelfmark: 40102 III/1 Saf.
!!!SMS-shelfwork: 002-041 W
!!!SMS-variant:
!!!SMS-altvar:
!!!NIFC-rismid: 990069887
!!!URL-scan: https://cyfrowe.mnk.pl/dlibra/publication/24235/edition/23926/content?ref=desc
!!!ONB-nifc: UWAGA: str. 66. Numer w źródle: 48. Uwaga: W xml metrum 2/1 do źródłowego C| i odpowiednio 3/1 do 3/2
!!!key: d:dor
**kern	**kern	**kern	**kern	**kern
*group1	*group1	*group1	*group1	*group1
*part5	*part4	*part3	*part2	*part1
*staff5	*staff4	*staff3	*staff2	*staff1
*I""Organo	*	*	*	*
*Iorgan	*Iorgan	*Iorgan	*Iorgan	*Iorgan
*ICklav	*ICklav	*ICklav	*ICklav	*ICklav
*clefF4	*clefC4	*clefC4	*clefC3	*clefC1
*k[b-]	*k[b-]	*k[b-]	*k[b-]	*k[b-]
*g:	*g:	*g:	*g:	*g:
*M3/1	*M3/1	*M3/1	*M3/1	*M3/1
*met(C|)	*met(C|)	*met(C|)	*met(C|)	*met(C|)
=1	=1	=1	=1	=1
!LO:TX:t=P:problem:all/middle:global	!LO:TX:t=P:problem:all/middle:global	!LO:TX:t=P:problem:all/middle:global	!LO:TX:t=P:problem:all/middle:global	!LO:TX:t=P:problem:all/middle:global
!LO:TX:t=P:problem:all\middle:global	!LO:TX:t=P:problem:all\middle:global	!LO:TX:t=P:problem:all\middle:global	!LO:TX:t=P:problem:all\middle:global	!LO:TX:t=P:problem:all\middle:global
!LO:TX:a:t=Alio modo Cantus cum Baſſo, cum Reſolutione.	!	!	!LO:TX:a:t=Pſallite Domino.	!LO:TX:a:t=48. In Aſcenſione Domini à 5.
00.r	1.d	00.r	1.f	1.a
.	2d\	.	2f\	2a\
.	1A	.	1a	1cc
=2-	=2-	=2-	=2-	=2-
.	0B-	.	1.g	0b-
.	.	.	2f\	.
.	1c	.	1e	1g
=3-	=3-	=3-	=3-	=3-
0.r	0.F	0.r	0.f	0.a
=4-	=4-	=4-	=4-	=4-
1.D	1.A	1.d	1.f	0.r
2D/	2A/	2d\	2f\	.
1AA	1A	1c	1c	.
=5	=5	=5	=5	=5
0BB-	0F	1.B-	0d	00.r
.	.	2A/	.	.
1C	1c	1G	1e	.
=6-	=6-	=6-	=6-	=6-
0.FF	0.c	0.A	0.f	.
=7-	=7-	=7-	=7-	=7-
1.F	1.c	1.A	1.f	1.a
2F\	2c\	2A/	2f\	2a\
1D	1d	1A	1f	1dd
=8-	=8-	=8-	=8-	=8-
!	!	!	!	!LO:N:acc=#
1.G	0c	0G	0g	0bn
2F\	.	.	.	.
1E	1G	1G	1g	1cc
=9	=9	=9	=9	=9
0.D	0.A	0.D	0.f#X	0.dd
=10-	=10-	=10-	=10-	=10-
!	!	!	!LO:SIC:v:s:t=1/f#	!
1.BB-	1.D	1.F	1.fny	1.dd
2BB-/	2D/	2F/	2d\	2dd\
1GG	1d	1G	1g	1b-
=11-	=11-	=11-	=11-	=11-
*M2/1	*M2/1	*M2/1	*M2/1	*M2/1
*met(C|)	*met(C|)	*met(C|)	*met(C|)	*met(C|)
1C	2.c\	1G	1e-X	4a\
.	.	.	.	4g/
.	.	.	.	2.g/
.	4B-\	.	.	.
1D	4A/	2.d\	1d	.
.	4G/	.	.	8f#X/
.	.	.	.	8e/
.	2A/	.	.	2f#/
.	.	4c\	.	.
=12	=12	=12	=12	=12
1GG	1G	2B-\	2d\	2g/
.	.	2G/	4r	2b-\
.	.	.	4g\	.
1r	1r	2A/	2f\	2cc\
.	.	2B-\	4e\	2dd\
.	.	.	4d\	.
=13-	=13-	=13-	=13-	=13-
0r	2r	2.c\	2.e\	1g
.	2C/	.	.	.
.	.	4c\	4e\	.
.	2D/	1B-	2f\	1r
.	2E/	.	2g\	.
=14	=14	=14	=14	=14
0r	2.E/	1A	2.c/	2r
.	.	.	.	2a\
.	4F/	.	4c/	.
.	2E-X/	2.G/	2g\	2b-\
.	2C/	.	2e-X\	2cc\
.	.	4A/	.	.
!LO:SIC:v:t=custos BB-	!LO:SIC:v:t=custos D	!LO:SIC:v:t=custos B-	!LO:SIC:v:t=custos d	!LO:SIC:v:t=custos f
!LO:LB:g=original	!LO:LB:g=original	!LO:LB:g=original	!LO:LB:g=original	!LO:LB:g=original
=15-	=15-	=15-	=15-	=15-
2r	1D	4B-\	2.d\	1f
.	.	4A/	.	.
2BB-/	.	2B-\	.	.
.	.	.	4d\	.
2C/	1r	4G/	2e-X\	2r
.	.	4c\	.	.
2D/	.	4B-\	4.d\	4r
.	.	[<4A/	.	4f#X/
.	.	.	8c/	.
=16	=16	=16	=16	=16
2GG/	0r	4A/]	2B-/	2g/
.	.	2G/	.	.
2r	.	.	2A/	2a\
.	.	4F#X/	.	.
1r	.	4G/	2.d\	1b-
.	.	4A/	.	.
.	.	4B-\	.	.
.	.	4G/	4e\	.
=17-	=17-	=17-	=17-	=17-
0r	2r	1d	2.f\	2.a\
.	2D/	.	.	.
.	.	.	4f\	4dd\
.	2E-X/	1r	2e-X\	4cc\
.	.	.	.	2b-\
.	2F/	.	2c/	.
.	.	.	.	4a\
=18	=18	=18	=18	=18
2r	2.BB-/	2r	1B-	1b-
2BB-/	.	2d\	.	.
.	4B-\	.	.	.
2C/	4A/	4.c\	1r	4r
.	4G/	.	.	2g/
.	.	8B-\	.	.
2D/	4.d\	2A/	.	.
.	.	.	.	4f/
.	8c\	.	.	.
=19-	=19-	=19-	=19-	=19-
1GG	4B-\	4G/	1r	1b-
.	4A/	8F/	.	.
.	.	8E/	.	.
.	2G/	4D/	.	.
.	.	4E/	.	.
4r	1A	4.F/	4r	1a
2D/	.	.	2f\	.
.	.	8E/	.	.
.	.	8F/	.	.
.	.	8G/	.	.
4C/	.	[<4A/	4e\	.
=20	=20	=20	=20	=20
2F\	4r	4A/]	4c/	4r
.	4A/	4F/	4d\	2a\
!	!LO:N:acc=#	!	!	!
2E\	4Bn\	2G/	2e\	.
.	4c#X\	.	.	4g/
2D/	4d\	2A/	2f#X\	2dd\
.	4A/	.	.	.
4r	2B-y\	2G/	2g\	4b-\
2GG/	.	.	.	4g/
=21-	=21-	=21-	=21-	=21-
.	2.A/	0r	4.d\	2.a\
4FF/	.	.	.	.
.	.	.	8d\	.
2C/	.	.	4e\	.
.	4G/	.	4c/	4e/
8BB-/	(<1B-	.	2.d\	2f/
8C/	.	.	.	.
8BB-/	.	.	.	.
8AA/	.	.	.	.
8GG/	.	.	.	y2.g/
8AA/	.	.	.	.
8BB-/	.	.	4d\	.
8GG/	.	.	.	.
=22	=22	=22	=22	=22
!	!	!	!	!LO:N:xstem:cue
1AA	1A)	1r	4c#X/	.
.	.	.	2d\	4f/
.	.	.	.	2e/
.	.	.	4c#X/	.
1D	1A	2r	2d\	2d/
.	.	2d\	2f\	2.a\
=23-	=23-	=23-	=23-	=23-
1r	1r	2c\	2e\	.
.	.	.	.	4g/
.	.	2B-\	2d\	2dd\
2r	2r	4B-\	4e\	4cc\
.	.	4c\	4f#X\	4a\
4r	2d\	2G/	2g\	2b-\
[<4GG/	.	.	.	.
=24	=24	=24	=24	=24
4GG/]	2A/	2.d\	2a\	2a\
4FF/	.	.	.	.
2BB-/	4.B-\	.	2r	2r
.	.	4d\	.	.
.	8A/	.	.	.
4C/	4G/	4c\	4e\	1r
4D/	4d\	4A/	4f#X\	.
2GG/	2d\	2B-\	2g\	.
=25-	=25-	=25-	=25-	=25-
1D	2.d\	2.A/	2.f#X\	2r
.	.	.	.	2a\
.	4d\	4F#X/	4a\	.
2r	4d\	4G/	4g\	4b-\
.	4c\	4A/	8f#\	4cc\
.	.	.	8e\	.
4r	4B-\	4B-\	4d\	4dd\
4BB-/	4d\	4G/	[<4g\	4b-\
=26	=26	=26	=26	=26
2C/	2c\	1A	4g\]	1a
.	.	.	8f#X\	.
.	.	.	8e\	.
2D/	2A/	.	2f#\	.
2GG/	2B-\	2.d\	1g	1g
2.G\	2B-\	.	.	.
.	.	8c\	.	.
.	.	8B-\	.	.
=27-	=27-	=27-	=27-	=27-
.	1A	2c\	1r	1r
8F#X\	.	.	.	.
8E\	.	.	.	.
2F#\	.	2d\	.	.
2.G\	2.B-\	2.d\	2r	2r
.	.	.	2g\	2b-\
4G\	4B-\	4d\	.	.
=28	=28	=28	=28	=28
2E-X\	2G/	2c\	2g\	2cc\
2D/	2.B-\	2F/	2f\	2dd\
1C	.	1c	2e-X\	1ee-X
.	8A/	.	.	.
.	8G/	.	.	.
.	2A/	.	4d\	.
.	.	.	4c/	.
=29-	=29-	=29-	=29-	=29-
2.BB-/	2.B-\	2.F/	2.f\	2.dd\
4BB-/	4B-\	4F/	4f\	4dd\
2AA/	2F/	2c\	2f\	4cc\
.	.	.	.	4b-\
2BB-/	2F/	2d\	2f\	y2.b-\
=30	=30	=30	=30	=30
!	!	!	!	!LO:N:xstem:cue
2F\	1F	1c	1f	.
.	.	.	.	8a\
.	.	.	.	8g\
2FF/	.	.	.	2a\
1BB-	2.F/	2d\	1f	1b-
.	.	2d\	.	.
.	4B-\	.	.	.
=31-	=31-	=31-	=31-	=31-
1r	4.A/	4.c\	2r	2r
.	8A/	8c\	.	.
.	2G/	2B-\	4r	4r
.	.	.	4d\	4dd\
2r	2r	1r	4.f\	4.cc\
.	.	.	8f\	8cc\
4r	4r	.	4g\	4b-\
4G\	4B-\	.	4d\	4b-\
=32	=32	=32	=32	=32
4.F\	4.c\	1r	4.f\	4.a\
8F\	8A/	.	8c/	8a\
4E-X\	4B-\	.	4e-X\	2g/
4E-\	4G/	.	4c/	.
!LO:SIC:v:t=custos D	!LO:SIC:v:t=custos A	!LO:SIC:v:t=custos c	!LO:SIC:v:t=custos f	!LO:SIC:v:t=custos dd
!LO:LB:g=original	!LO:LB:g=original	!LO:LB:g=original	!LO:LB:g=original	!LO:LB:g=original
4.D/	4A/	2r	4.f\	1r
.	4F/	.	.	.
8D/	.	.	8f\	.
2C/	2G/	4r	4e-\	.
.	.	4c\	4e-\	.
=33-	=33-	=33-	=33-	=33-
1r	1r	4.B-\	4.d\	4r
.	.	.	.	4dd\
.	.	8B-\	8d\	.
.	.	4A/	4e\ny	4.cc\
.	.	4A/	4c\	.
.	.	.	.	8a\
2r	2r	4.G/	4d\	4b-\
.	.	.	4e\	4g/
.	.	8G/	.	.
4r	4r	4d\	2f\	2a\
4D/	4A/	4f\	.	.
=34	=34	=34	=34	=34
4.C/	4.c\	4.e\	2r	2r
8AA/	8c\	8f\	.	.
4BB-/	4B-\	4d\	4r	4r
4BB-/	2G/	4B-\	4d\	4dd\
4.AA/	.	4c\	4.a\	4.cc\
.	4F#X/	4A/	.	.
8AA/	.	.	8a\	8cc\
2GG/	2G/	4B-\	4d\	4b-\
.	.	4G/	4e\	4b-\
=35	=35	=35	=35	=35
1D	2.F/	0A	2f\	4a\
.	.	.	.	4d/
.	.	.	2f\	2dd\
.	8E/	.	.	.
.	8D/	.	.	.
[y1AA	2E/	.	2e\	2cc#X\
.	2D/	.	2f\	[y2dd\
=36	=36	=36	=36	=36
!LO:N:vis=4:xstem:cue	!	!	!	!LO:N:xstem:cue
2AA]	2E/	1A	2.e\	4dd]
.	.	.	.	8cc#X\
.	.	.	.	8b-\
2AA/	2E/	.	.	2cc#\
.	.	.	4e\	.
2D/	2F#X/	2A/	2.d\	1dd
2G\	2r	2B-\	.	.
.	.	.	4d\	.
=37-	=37-	=37-	=37-	=37-
4.F\	1r	4.c\	2f\	1r
8D/	.	8d\	.	.
4E-X\	.	4B-\	2e-X\	.
4C/	.	4c\	.	.
2.D/	2r	2.A/	2.d\	2r
.	4r	.	.	2dd\
4BB-/	4D/	4G/	4g\	.
=38	=38	=38	=38	=38
4.C/	4.E/	4.G/	4.e\	4.cc\
8AA/	8C/	8A/	8f\	8cc\
4BB-/	4D/	4F/	4d\	4b-\
4GG/	4E/	4G/	4g\	4b-\
2.D/	1.F	1A	4f\	4a\
.	.	.	4e\	4g/
.	.	.	4d\	4f/
4C/	.	.	4e\	4e/
=39-	=39-	=39-	=39-	=39-
2.BB-/	.	1.D	4f\	2d/
.	.	.	4d\	.
.	2.G/	.	2.b-\	2.dd\
4AA/	.	.	.	.
1GG	.	.	.	.
.	4A/	.	4a\	4cc\
.	2B-\	2D/	2g\	4b-\
.	.	.	.	8a\
.	.	.	.	8g\
=40	=40	=40	=40	=40
1.D	2A/	0d	2f#X\	2a\
.	2G/	.	2.g\	2b-\
.	1A	.	.	1a
.	.	.	8f#X\	.
.	.	.	8e\	.
2D/	.	.	2f#\	.
=41-	=41-	=41-	=41-	=41-
2.GG/	1G	2d\	2.g\	2b-\
.	.	1B-	.	1dd
!	!	!	!LO:N:SIC:v:s:t=8f#\	!
4AA/	.	.	8fny\	.
.	.	.	8e\	.
4BB-/	[y1D	.	4d\	.
4C/	.	.	4e\	.
2D/	.	2A/	2f#X\	2a\
=42	=42	=42	=42	=42
!	!LO:N:vis=4:xstem:cue	!	!	!
0GG	2D]	0.G	4g\	2.b-\
.	.	.	4d\	.
.	2D/	.	4g\	.
.	.	.	4a\	4cc\
.	0D	.	4b-\	4dd\
.	.	.	4a\	4cc\
.	.	.	4g\	4b-\
.	.	.	4f#X\	4a\
=43-	=43-	=43-	=43-	=43-
1GG	.	.	4g\	2b-\
.	.	.	4e\	.
.	.	.	1g	2b-\
[0.DDl/	[0.Dl/	[0.Al\	.	[0.al\
.	.	.	4f#X\	.
.	.	.	4e\	.
=44-	=44-	=44-	=44-	=44-
.	.	.	00f#X\	.
0DD]	0D]	0A]	.	0a]
==	==	==	==	==
*-	*-	*-	*-	*-
!!!system-decoration: g1
!!!RDF**kern: l = terminal long
!!!RDF**kern: > = above
!!!RDF**kern: < = below
!!!ENC:Anastazja Marusiak
!!!END: 2021-12-21
!!!EED: Jędrzej Mróz
!!!EST: 2021-12-27
